images/50164359.svg

<?xml version="1.0" encoding="UTF-8"?>
<svg xmlns="http://www.w3.org/2000/svg" xmlns:xlink="http://www.w3.org/1999/xlink" width="300pt" height="300pt" viewBox="0 0 300 300" version="1.1">
<defs>
<g>
<symbol overflow="visible" id="glyph0-0">
<path style="stroke:none;" d="M 0.546875 1.9375 L 0.546875 -7.75 L 6.046875 -7.75 L 6.046875 1.9375 Z M 1.171875 1.328125 L 5.4375 1.328125 L 5.4375 -7.140625 L 1.171875 -7.140625 Z M 1.171875 1.328125 "/>
</symbol>
<symbol overflow="visible" id="glyph0-1">
<path style="stroke:none;" d="M 7.078125 -7.40625 L 7.078125 -6.25 C 6.710938 -6.59375 6.320312 -6.847656 5.90625 -7.015625 C 5.5 -7.179688 5.0625 -7.265625 4.59375 -7.265625 C 3.675781 -7.265625 2.972656 -6.984375 2.484375 -6.421875 C 2.003906 -5.867188 1.765625 -5.0625 1.765625 -4 C 1.765625 -2.945312 2.003906 -2.140625 2.484375 -1.578125 C 2.972656 -1.015625 3.675781 -0.734375 4.59375 -0.734375 C 5.0625 -0.734375 5.5 -0.816406 5.90625 -0.984375 C 6.320312 -1.148438 6.710938 -1.40625 7.078125 -1.75 L 7.078125 -0.625 C 6.703125 -0.363281 6.300781 -0.164062 5.875 -0.03125 C 5.457031 0.09375 5.007812 0.15625 4.53125 0.15625 C 3.320312 0.15625 2.367188 -0.210938 1.671875 -0.953125 C 0.972656 -1.703125 0.625 -2.71875 0.625 -4 C 0.625 -5.289062 0.972656 -6.304688 1.671875 -7.046875 C 2.367188 -7.796875 3.320312 -8.171875 4.53125 -8.171875 C 5.007812 -8.171875 5.460938 -8.101562 5.890625 -7.96875 C 6.316406 -7.84375 6.710938 -7.65625 7.078125 -7.40625 Z M 7.078125 -7.40625 "/>
</symbol>
<symbol overflow="visible" id="glyph0-2">
<path style="stroke:none;" d="M 1.03125 -8.359375 L 2.03125 -8.359375 L 2.03125 0 L 1.03125 0 Z M 1.03125 -8.359375 "/>
</symbol>
<symbol overflow="visible" id="glyph0-3">
<path style="stroke:none;" d="M 1.078125 -8.015625 L 2.546875 -8.015625 L 6.09375 -1.3125 L 6.09375 -8.015625 L 7.15625 -8.015625 L 7.15625 0 L 5.6875 0 L 2.125 -6.703125 L 2.125 0 L 1.078125 0 Z M 1.078125 -8.015625 "/>
</symbol>
<symbol overflow="visible" id="glyph0-4">
<path style="stroke:none;" d="M 1.078125 -8.015625 L 2.171875 -8.015625 L 2.171875 -4.734375 L 6.109375 -4.734375 L 6.109375 -8.015625 L 7.1875 -8.015625 L 7.1875 0 L 6.109375 0 L 6.109375 -3.8125 L 2.171875 -3.8125 L 2.171875 0 L 1.078125 0 Z M 1.078125 -8.015625 "/>
</symbol>
<symbol overflow="visible" id="glyph0-5">
<path style="stroke:none;" d="M 4.328125 -7.28125 C 3.546875 -7.28125 2.921875 -6.984375 2.453125 -6.390625 C 1.992188 -5.804688 1.765625 -5.007812 1.765625 -4 C 1.765625 -2.988281 1.992188 -2.1875 2.453125 -1.59375 C 2.921875 -1.007812 3.546875 -0.71875 4.328125 -0.71875 C 5.117188 -0.71875 5.742188 -1.007812 6.203125 -1.59375 C 6.660156 -2.1875 6.890625 -2.988281 6.890625 -4 C 6.890625 -5.007812 6.660156 -5.804688 6.203125 -6.390625 C 5.742188 -6.984375 5.117188 -7.28125 4.328125 -7.28125 Z M 4.328125 -8.171875 C 5.453125 -8.171875 6.351562 -7.789062 7.03125 -7.03125 C 7.707031 -6.28125 8.046875 -5.269531 8.046875 -4 C 8.046875 -2.738281 7.707031 -1.726562 7.03125 -0.96875 C 6.351562 -0.21875 5.453125 0.15625 4.328125 0.15625 C 3.203125 0.15625 2.300781 -0.21875 1.625 -0.96875 C 0.957031 -1.71875 0.625 -2.726562 0.625 -4 C 0.625 -5.269531 0.957031 -6.28125 1.625 -7.03125 C 2.300781 -7.789062 3.203125 -8.171875 4.328125 -8.171875 Z M 4.328125 -8.171875 "/>
</symbol>
</g>
</defs>
<g id="surface17589">
<rect x="0" y="0" width="300" height="300" style="fill:rgb(100%,100%,100%);fill-opacity:1;stroke:none;"/>
<path style="fill:none;stroke-width:1.2;stroke-linecap:butt;stroke-linejoin:miter;stroke:rgb(0%,80%,0%);stroke-opacity:1;stroke-miterlimit:10;" d="M 225.585938 178.367188 L 222.902344 165.511719 "/>
<path style="fill:none;stroke-width:1.2;stroke-linecap:butt;stroke-linejoin:miter;stroke:rgb(0%,0%,0%);stroke-opacity:1;stroke-miterlimit:10;" d="M 222.902344 165.511719 L 220.21875 152.65625 "/>
<path style=" stroke:none;fill-rule:nonzero;fill:rgb(100%,100%,100%);fill-opacity:1;" d="M 220.585938 171.867188 L 231.585938 171.867188 L 231.585938 184.867188 L 220.585938 184.867188 Z M 220.585938 171.867188 "/>
<g style="fill:rgb(0%,80%,0%);fill-opacity:1;">
  <use xlink:href="#glyph0-1" x="220.585938" y="181.768555"/>
  <use xlink:href="#glyph0-2" x="228.037109" y="181.768555"/>
</g>
<path style="fill:none;stroke-width:1.2;stroke-linecap:butt;stroke-linejoin:miter;stroke:rgb(0%,0%,0%);stroke-opacity:1;stroke-miterlimit:10;" d="M 220.21875 152.65625 L 195.269531 144.449219 "/>
<path style="fill:none;stroke-width:1.2;stroke-linecap:butt;stroke-linejoin:miter;stroke:rgb(0%,0%,0%);stroke-opacity:1;stroke-miterlimit:10;" d="M 219.65625 145.964844 L 199.695312 139.398438 "/>
<path style="fill:none;stroke-width:1.2;stroke-linecap:butt;stroke-linejoin:miter;stroke:rgb(0%,0%,0%);stroke-opacity:1;stroke-miterlimit:10;" d="M 239.800781 135.152344 L 220.21875 152.65625 "/>
<path style="fill:none;stroke-width:1.2;stroke-linecap:butt;stroke-linejoin:miter;stroke:rgb(0%,0%,0%);stroke-opacity:1;stroke-miterlimit:10;" d="M 195.269531 144.449219 L 185.476562 153.203125 "/>
<path style="fill:none;stroke-width:1.2;stroke-linecap:butt;stroke-linejoin:miter;stroke:rgb(0%,0%,100%);stroke-opacity:1;stroke-miterlimit:10;" d="M 185.476562 153.203125 L 175.6875 161.953125 "/>
<path style="fill:none;stroke-width:1.2;stroke-linecap:butt;stroke-linejoin:miter;stroke:rgb(0%,0%,0%);stroke-opacity:1;stroke-miterlimit:10;" d="M 195.269531 144.449219 L 189.902344 118.738281 "/>
<path style="fill:none;stroke-width:1.2;stroke-linecap:butt;stroke-linejoin:miter;stroke:rgb(0%,0%,100%);stroke-opacity:1;stroke-miterlimit:10;" d="M 175.6875 161.953125 L 163.210938 157.851562 "/>
<path style="fill:none;stroke-width:1.2;stroke-linecap:butt;stroke-linejoin:miter;stroke:rgb(0%,0%,0%);stroke-opacity:1;stroke-miterlimit:10;" d="M 163.210938 157.851562 L 150.738281 153.746094 "/>
<path style=" stroke:none;fill-rule:nonzero;fill:rgb(100%,100%,100%);fill-opacity:1;" d="M 167.6875 155.453125 L 184.6875 155.453125 L 184.6875 168.453125 L 167.6875 168.453125 Z M 167.6875 155.453125 "/>
<g style="fill:rgb(0%,0%,100%);fill-opacity:1;">
  <use xlink:href="#glyph0-3" x="167.6875" y="165.354492"/>
  <use xlink:href="#glyph0-4" x="175.670898" y="165.354492"/>
</g>
<path style="fill:none;stroke-width:1.2;stroke-linecap:butt;stroke-linejoin:miter;stroke:rgb(0%,0%,0%);stroke-opacity:1;stroke-miterlimit:10;" d="M 153.761719 153.113281 L 151.078125 140.261719 "/>
<path style="fill:none;stroke-width:1.2;stroke-linecap:butt;stroke-linejoin:miter;stroke:rgb(100%,0%,0%);stroke-opacity:1;stroke-miterlimit:10;" d="M 151.078125 140.261719 L 148.394531 127.40625 "/>
<path style="fill:none;stroke-width:1.2;stroke-linecap:butt;stroke-linejoin:miter;stroke:rgb(0%,0%,0%);stroke-opacity:1;stroke-miterlimit:10;" d="M 147.710938 154.378906 L 145.027344 141.523438 "/>
<path style="fill:none;stroke-width:1.2;stroke-linecap:butt;stroke-linejoin:miter;stroke:rgb(100%,0%,0%);stroke-opacity:1;stroke-miterlimit:10;" d="M 145.027344 141.523438 L 142.34375 128.667969 "/>
<path style="fill:none;stroke-width:1.2;stroke-linecap:butt;stroke-linejoin:miter;stroke:rgb(0%,0%,0%);stroke-opacity:1;stroke-miterlimit:10;" d="M 150.738281 153.746094 L 140.945312 162.5 "/>
<path style="fill:none;stroke-width:1.2;stroke-linecap:butt;stroke-linejoin:miter;stroke:rgb(0%,0%,100%);stroke-opacity:1;stroke-miterlimit:10;" d="M 140.945312 162.5 L 131.15625 171.25 "/>
<path style=" stroke:none;fill-rule:nonzero;fill:rgb(100%,100%,100%);fill-opacity:1;" d="M 141.371094 121.535156 L 150.371094 121.535156 L 150.371094 134.535156 L 141.371094 134.535156 Z M 141.371094 121.535156 "/>
<g style="fill:rgb(100%,0%,0%);fill-opacity:1;">
  <use xlink:href="#glyph0-5" x="141.371094" y="131.436523"/>
</g>
<path style="fill:none;stroke-width:1.2;stroke-linecap:butt;stroke-linejoin:miter;stroke:rgb(0%,0%,100%);stroke-opacity:1;stroke-miterlimit:10;" d="M 131.15625 171.25 L 118.679688 167.148438 "/>
<path style="fill:none;stroke-width:1.2;stroke-linecap:butt;stroke-linejoin:miter;stroke:rgb(0%,0%,0%);stroke-opacity:1;stroke-miterlimit:10;" d="M 118.679688 167.148438 L 106.207031 163.042969 "/>
<path style=" stroke:none;fill-rule:nonzero;fill:rgb(100%,100%,100%);fill-opacity:1;" d="M 123.15625 164.75 L 140.15625 164.75 L 140.15625 177.75 L 123.15625 177.75 Z M 123.15625 164.75 "/>
<g style="fill:rgb(0%,0%,100%);fill-opacity:1;">
  <use xlink:href="#glyph0-3" x="123.15625" y="174.651367"/>
  <use xlink:href="#glyph0-4" x="131.139648" y="174.651367"/>
</g>
<path style="fill:none;stroke-width:1.2;stroke-linecap:butt;stroke-linejoin:miter;stroke:rgb(0%,0%,0%);stroke-opacity:1;stroke-miterlimit:10;" d="M 106.207031 163.042969 L 95.554688 170.722656 "/>
<path style="fill:none;stroke-width:1.2;stroke-linecap:butt;stroke-linejoin:miter;stroke:rgb(0%,0%,100%);stroke-opacity:1;stroke-miterlimit:10;" d="M 95.554688 170.722656 L 84.902344 178.40625 "/>
<path style="fill:none;stroke-width:1.2;stroke-linecap:butt;stroke-linejoin:miter;stroke:rgb(0%,0%,0%);stroke-opacity:1;stroke-miterlimit:10;" d="M 98.179688 138.035156 L 106.207031 163.042969 "/>
<path style="fill:none;stroke-width:1.2;stroke-linecap:butt;stroke-linejoin:miter;stroke:rgb(0%,0%,0%);stroke-opacity:1;stroke-miterlimit:10;" d="M 93.097656 142.425781 L 99.519531 162.429688 "/>
<path style="fill:none;stroke-width:1.2;stroke-linecap:butt;stroke-linejoin:miter;stroke:rgb(0%,0%,100%);stroke-opacity:1;stroke-miterlimit:10;" d="M 84.902344 178.40625 L 63.707031 162.890625 "/>
<path style="fill:none;stroke-width:1.2;stroke-linecap:butt;stroke-linejoin:miter;stroke:rgb(0%,0%,100%);stroke-opacity:1;stroke-miterlimit:10;" d="M 84.902344 178.40625 L 84.851562 191.535156 "/>
<path style="fill:none;stroke-width:1.2;stroke-linecap:butt;stroke-linejoin:miter;stroke:rgb(0%,0%,0%);stroke-opacity:1;stroke-miterlimit:10;" d="M 84.851562 191.535156 L 84.804688 204.667969 "/>
<path style=" stroke:none;fill-rule:nonzero;fill:rgb(100%,100%,100%);fill-opacity:1;" d="M 80.902344 171.90625 L 88.902344 171.90625 L 88.902344 184.90625 L 80.902344 184.90625 Z M 80.902344 171.90625 "/>
<g style="fill:rgb(0%,0%,100%);fill-opacity:1;">
  <use xlink:href="#glyph0-3" x="80.902344" y="181.807617"/>
</g>
<path style="fill:none;stroke-width:1.2;stroke-linecap:butt;stroke-linejoin:miter;stroke:rgb(0%,0%,100%);stroke-opacity:1;stroke-miterlimit:10;" d="M 63.707031 162.890625 L 67.8125 150.414062 "/>
<path style="fill:none;stroke-width:1.2;stroke-linecap:butt;stroke-linejoin:miter;stroke:rgb(0%,0%,0%);stroke-opacity:1;stroke-miterlimit:10;" d="M 67.8125 150.414062 L 71.914062 137.941406 "/>
<path style="fill:none;stroke-width:1.2;stroke-linecap:butt;stroke-linejoin:miter;stroke:rgb(0%,0%,100%);stroke-opacity:1;stroke-miterlimit:10;" d="M 70.398438 162.324219 L 73.683594 152.34375 "/>
<path style="fill:none;stroke-width:1.2;stroke-linecap:butt;stroke-linejoin:miter;stroke:rgb(0%,0%,0%);stroke-opacity:1;stroke-miterlimit:10;" d="M 73.683594 152.34375 L 76.964844 142.367188 "/>
<path style=" stroke:none;fill-rule:nonzero;fill:rgb(100%,100%,100%);fill-opacity:1;" d="M 59.707031 156.390625 L 67.707031 156.390625 L 67.707031 169.390625 L 59.707031 169.390625 Z M 59.707031 156.390625 "/>
<g style="fill:rgb(0%,0%,100%);fill-opacity:1;">
  <use xlink:href="#glyph0-3" x="59.707031" y="166.291992"/>
</g>
<path style="fill:none;stroke-width:1.2;stroke-linecap:butt;stroke-linejoin:miter;stroke:rgb(0%,0%,0%);stroke-opacity:1;stroke-miterlimit:10;" d="M 71.914062 137.941406 L 98.179688 138.035156 "/>
<path style="fill:none;stroke-width:1.2;stroke-linecap:butt;stroke-linejoin:miter;stroke:rgb(0%,0%,0%);stroke-opacity:1;stroke-miterlimit:10;" d="M 71.914062 137.941406 L 56.554688 116.636719 "/>
<path style="fill:none;stroke-width:1.2;stroke-linecap:butt;stroke-linejoin:miter;stroke:rgb(0%,0%,0%);stroke-opacity:1;stroke-miterlimit:10;" d="M 56.554688 116.636719 L 77.859375 101.273438 "/>
<path style="fill:none;stroke-width:1.2;stroke-linecap:butt;stroke-linejoin:miter;stroke:rgb(0%,0%,0%);stroke-opacity:1;stroke-miterlimit:10;" d="M 56.554688 116.636719 L 35.25 131.996094 "/>
<path style="fill:none;stroke-width:1.2;stroke-linecap:butt;stroke-linejoin:miter;stroke:rgb(0%,0%,0%);stroke-opacity:1;stroke-miterlimit:10;" d="M 56.554688 116.636719 L 41.195312 95.332031 "/>
<path style="fill:none;stroke-width:1.2;stroke-linecap:butt;stroke-linejoin:miter;stroke:rgb(0%,0%,0%);stroke-opacity:1;stroke-miterlimit:10;" d="M 189.902344 118.738281 L 209.484375 101.234375 "/>
<path style="fill:none;stroke-width:1.2;stroke-linecap:butt;stroke-linejoin:miter;stroke:rgb(0%,0%,0%);stroke-opacity:1;stroke-miterlimit:10;" d="M 195.976562 121.597656 L 211.644531 107.59375 "/>
<path style="fill:none;stroke-width:1.2;stroke-linecap:butt;stroke-linejoin:miter;stroke:rgb(0%,0%,0%);stroke-opacity:1;stroke-miterlimit:10;" d="M 209.484375 101.234375 L 234.433594 109.441406 "/>
<path style="fill:none;stroke-width:1.2;stroke-linecap:butt;stroke-linejoin:miter;stroke:rgb(0%,0%,0%);stroke-opacity:1;stroke-miterlimit:10;" d="M 234.433594 109.441406 L 239.800781 135.152344 "/>
<path style="fill:none;stroke-width:1.2;stroke-linecap:butt;stroke-linejoin:miter;stroke:rgb(0%,0%,0%);stroke-opacity:1;stroke-miterlimit:10;" d="M 228.921875 113.277344 L 233.214844 133.84375 "/>
<path style="fill:none;stroke-width:1.2;stroke-linecap:butt;stroke-linejoin:miter;stroke:rgb(0%,0%,0%);stroke-opacity:1;stroke-miterlimit:10;" d="M 239.800781 135.152344 L 252.273438 139.257812 "/>
<path style="fill:none;stroke-width:1.2;stroke-linecap:butt;stroke-linejoin:miter;stroke:rgb(0%,80%,0%);stroke-opacity:1;stroke-miterlimit:10;" d="M 252.273438 139.257812 L 264.75 143.359375 "/>
<path style=" stroke:none;fill-rule:nonzero;fill:rgb(100%,100%,100%);fill-opacity:1;" d="M 259.75 136.859375 L 270.75 136.859375 L 270.75 149.859375 L 259.75 149.859375 Z M 259.75 136.859375 "/>
<g style="fill:rgb(0%,80%,0%);fill-opacity:1;">
  <use xlink:href="#glyph0-1" x="259.75" y="146.760742"/>
  <use xlink:href="#glyph0-2" x="267.201172" y="146.760742"/>
</g>
</g>
</svg>

<svg xmlns="http://www.w3.org/2000/svg" xmlns:xlink="http://www.w3.org/1999/xlink" width="300pt" height="300pt" viewBox="0 0 300 300"><defs><symbol overflow="visible"><path d="M.547 1.938V-7.75h5.5v9.688zm.625-.61h4.266v-8.47H1.171zm0 0"/></symbol><symbol overflow="visible" id="a"><path d="M7.078-7.406v1.156c-.367-.344-.758-.598-1.172-.766-.406-.164-.843-.25-1.312-.25-.918 0-1.62.282-2.11.844-.48.555-.718 1.36-.718 2.422 0 1.055.238 1.86.718 2.422.49.562 1.192.844 2.11.844.468 0 .906-.082 1.312-.25.414-.164.805-.422 1.172-.766v1.125c-.375.262-.777.46-1.203.594-.418.124-.867.186-1.344.186-1.21 0-2.163-.367-2.858-1.11C.972-1.703.625-2.718.625-4c0-1.29.348-2.305 1.047-3.047.695-.75 1.648-1.125 2.86-1.125.476 0 .93.07 1.36.203.424.126.82.314 1.186.564zm0 0"/></symbol><symbol overflow="visible" id="b"><path d="M1.03-8.36h1V0h-1zm0 0"/></symbol><symbol overflow="visible" id="c"><path d="M1.078-8.016h1.47l3.546 6.704v-6.704h1.062V0H5.688L2.124-6.703V0H1.078zm0 0"/></symbol><symbol overflow="visible" id="d"><path d="M1.078-8.016h1.094v3.282H6.11v-3.282h1.077V0H6.11v-3.813H2.17V0H1.078zm0 0"/></symbol><symbol overflow="visible" id="e"><path d="M4.328-7.28c-.78 0-1.406.296-1.875.89-.46.585-.687 1.382-.687 2.39 0 1.012.226 1.813.687 2.406.47.586 1.094.875 1.875.875.79 0 1.414-.288 1.875-.874.457-.593.688-1.394.688-2.406 0-1.008-.23-1.805-.687-2.39-.46-.594-1.086-.89-1.875-.89zm0-.892c1.125 0 2.024.383 2.703 1.14C7.708-6.28 8.048-5.27 8.048-4c0 1.262-.34 2.273-1.016 3.03C6.353-.22 5.454.157 4.33.157S2.3-.22 1.625-.97c-.668-.75-1-1.757-1-3.03 0-1.27.332-2.28 1-3.03.676-.76 1.578-1.142 2.703-1.142zm0 0"/></symbol></defs><g><path fill="#fff" d="M0 0h300v300H0z"/><path d="M225.586 178.367l-2.684-12.855" stroke-width="1.2" stroke="#0c0" stroke-miterlimit="10" fill="none"/><path d="M222.902 165.512l-2.683-12.856" stroke-width="1.2" stroke="#000" stroke-miterlimit="10" fill="none"/><path d="M220.586 171.867h11v13h-11zm0 0" fill="#fff"/><g fill="#0c0"><use xlink:href="#a" x="220.586" y="181.769"/><use xlink:href="#b" x="228.037" y="181.769"/></g><path d="M220.22 152.656l-24.95-8.207M219.656 145.965l-19.96-6.567M239.8 135.152l-19.58 17.504M195.27 144.45l-9.793 8.753" stroke-width="1.2" stroke="#000" stroke-miterlimit="10" fill="none"/><path d="M185.477 153.203l-9.79 8.75" stroke-width="1.2" stroke="#00f" stroke-miterlimit="10" fill="none"/><path d="M195.27 144.45l-5.368-25.712" stroke-width="1.2" stroke="#000" stroke-miterlimit="10" fill="none"/><path d="M175.688 161.953l-12.477-4.1" stroke-width="1.2" stroke="#00f" stroke-miterlimit="10" fill="none"/><path d="M163.21 157.852l-12.472-4.106" stroke-width="1.2" stroke="#000" stroke-miterlimit="10" fill="none"/><path d="M167.688 155.453h17v13h-17zm0 0" fill="#fff"/><g fill="#00f"><use xlink:href="#c" x="167.688" y="165.354"/><use xlink:href="#d" x="175.671" y="165.354"/></g><path d="M153.762 153.113l-2.684-12.85" stroke-width="1.2" stroke="#000" stroke-miterlimit="10" fill="none"/><path d="M151.078 140.262l-2.683-12.856" stroke-width="1.2" stroke="#f00" stroke-miterlimit="10" fill="none"/><path d="M147.71 154.38l-2.683-12.857" stroke-width="1.2" stroke="#000" stroke-miterlimit="10" fill="none"/><path d="M145.027 141.523l-2.683-12.855" stroke-width="1.2" stroke="#f00" stroke-miterlimit="10" fill="none"/><path d="M150.738 153.746l-9.793 8.754" stroke-width="1.2" stroke="#000" stroke-miterlimit="10" fill="none"/><path d="M140.945 162.5l-9.79 8.75" stroke-width="1.2" stroke="#00f" stroke-miterlimit="10" fill="none"/><path d="M141.37 121.535h9v13h-9zm0 0" fill="#fff"/><use xlink:href="#e" x="141.371" y="131.437" fill="#f00"/><path d="M131.156 171.25l-12.476-4.102" stroke-width="1.2" stroke="#00f" stroke-miterlimit="10" fill="none"/><path d="M118.68 167.148l-12.473-4.105" stroke-width="1.2" stroke="#000" stroke-miterlimit="10" fill="none"/><path d="M123.156 164.75h17v13h-17zm0 0" fill="#fff"/><g fill="#00f"><use xlink:href="#c" x="123.156" y="174.651"/><use xlink:href="#d" x="131.14" y="174.651"/></g><path d="M106.207 163.043l-10.652 7.68" stroke-width="1.2" stroke="#000" stroke-miterlimit="10" fill="none"/><path d="M95.555 170.723l-10.653 7.683" stroke-width="1.2" stroke="#00f" stroke-miterlimit="10" fill="none"/><path d="M98.18 138.035l8.027 25.008M93.098 142.426l6.422 20.004" stroke-width="1.2" stroke="#000" stroke-miterlimit="10" fill="none"/><path d="M84.902 178.406L63.707 162.89M84.902 178.406l-.05 13.13" stroke-width="1.2" stroke="#00f" stroke-miterlimit="10" fill="none"/><path d="M84.852 191.535l-.047 13.133" stroke-width="1.2" stroke="#000" stroke-miterlimit="10" fill="none"/><path d="M80.902 171.906h8v13h-8zm0 0" fill="#fff"/><use xlink:href="#c" x="80.902" y="181.808" fill="#00f"/><path d="M63.707 162.89l4.105-12.476" stroke-width="1.2" stroke="#00f" stroke-miterlimit="10" fill="none"/><path d="M67.813 150.414l4.1-12.473" stroke-width="1.2" stroke="#000" stroke-miterlimit="10" fill="none"/><path d="M70.398 162.324l3.286-9.98" stroke-width="1.2" stroke="#00f" stroke-miterlimit="10" fill="none"/><path d="M73.684 152.344l3.28-9.977" stroke-width="1.2" stroke="#000" stroke-miterlimit="10" fill="none"/><path d="M59.707 156.39h8v13h-8zm0 0" fill="#fff"/><use xlink:href="#c" x="59.707" y="166.292" fill="#00f"/><path d="M71.914 137.94l26.266.095M71.914 137.94l-15.36-21.303M56.555 116.637l21.304-15.364M56.555 116.637l-21.305 15.36M56.555 116.637l-15.36-21.305M189.902 118.738l19.582-17.504M195.977 121.598l15.668-14.004M209.484 101.234l24.95 8.207M234.434 109.44l5.367 25.712M228.922 113.277l4.293 20.567M239.8 135.152l12.473 4.106" stroke-width="1.2" stroke="#000" stroke-miterlimit="10" fill="none"/><path d="M252.273 139.258l12.477 4.1" stroke-width="1.2" stroke="#0c0" stroke-miterlimit="10" fill="none"/><path d="M259.75 136.86h11v13h-11zm0 0" fill="#fff"/><g fill="#0c0"><use xlink:href="#a" x="259.75" y="146.761"/><use xlink:href="#b" x="267.201" y="146.761"/></g></g></svg>
